svgs/sharp-duotone-light/timer.svg

<svg xmlns="http://www.w3.org/2000/svg" viewBox="0 0 512 512"><!--! Font Awesome Pro 7.1.0 by @fontawesome - https://fontawesome.com License - https://fontawesome.com/license (Commercial License) Copyright 2025 Fonticons, Inc. --><path opacity=".4" fill="currentColor" d="M32 256c0-61.9 25.1-117.8 65.6-158.4l51.1 51.1-11.3 11.3 11.3 11.3 96 96 11.3 11.3 22.6-22.6c-7.5-7.5-15.1-15.1-22.6-22.6l0-105.4 16 0 0-95.4c116.2 8.2 208 105.1 208 223.4 0 123.7-100.3 224-224 224S32 379.7 32 256z"/><path fill="currentColor" d="M256 0l-16 0 0 128 32 0 0-95.4c116.2 8.2 208 105.1 208 223.4 0 123.7-100.3 224-224 224S32 379.7 32 256c0-61.9 25.1-117.8 65.6-158.4L75 75C28.7 121.3 0 185.3 0 256 0 397.4 114.6 512 256 512S512 397.4 512 256 397.4 0 256 0zM171.3 148.7l-11.3-11.3-22.6 22.6 11.3 11.3 96 96 11.3 11.3 22.6-22.6-11.3-11.3-96-96z"/></svg>

<svg xmlns="http://www.w3.org/2000/svg" viewBox="0 0 512 512"><!--! Font Awesome Pro 6.7.2 by @fontawesome - https://fontawesome.com License - https://fontawesome.com/license (Commercial License) Copyright 2024 Fonticons, Inc. --><defs><style>.fa-secondary{opacity:.4}</style></defs><path class="fa-secondary" d="M32 256c0-61.9 25.1-117.8 65.6-158.4l51.1 51.1L137.4 160l11.3 11.3 96 96L256 278.6 278.6 256l-11.3-11.3L256 233.4 256 128l16 0 0-16 0-79.4C388.2 40.8 480 137.7 480 256c0 123.7-100.3 224-224 224S32 379.7 32 256z"/><path class="fa-primary" d="M256 0L240 0l0 16 0 96 0 16 32 0 0-16 0-79.4C388.2 40.8 480 137.7 480 256c0 123.7-100.3 224-224 224S32 379.7 32 256c0-61.9 25.1-117.8 65.6-158.4L75 75C28.7 121.3 0 185.3 0 256C0 397.4 114.6 512 256 512s256-114.6 256-256S397.4 0 256 0zM171.3 148.7L160 137.4 137.4 160l11.3 11.3 96 96L256 278.6 278.6 256l-11.3-11.3-96-96z"/></svg>
